X:25
T:"The Hungry Jig"
C:Jig composed by Davy Rogers
L:1/8
Q:130
K:G
M:6/8
D |: ABc DcB | ABE FED | ABc GdB | cAA ABc |
dcA Gcd | ecB ABc | dBA GBc |1 BGG G2D :|2 BGG G2c ||:
ABG FAd | BcA Gcd | edB dcB | cAA Aef |
gfe fed | edc dBc | dBA GBc |1 BGG G2c :|2 BGG G2 ||



